X: 4358
M: 6/8
L: 1/8
K: G
"_p 2nd f"de |\
dcB d2e | dcB d2c |\
dcB d2e | dcB d2c |\
dcB A2c | cBA G2D |\
dcB A2B | G3- G2 :|
|: !f!d |\
d2d d2d | d3 c2B |\
d2d d2d | d3 c2B |\


